src/16/actions/path-mask-edit.svg

<svg xmlns="http://www.w3.org/2000/svg" width="16" height="16" viewBox="0 0 16 16">
 <defs>
  <style id="current-color-scheme" type="text/css">
   .ColorScheme-Text { color:#565656; } .ColorScheme-Highlight { color:#5294e2; }
  </style>
 </defs>
 <path style="fill:currentColor" class="ColorScheme-Text" d="M 14.501953 0.94726562 C 13.819953 0.94726562 13.252313 1.4054269 13.070312 2.0292969 C 7.7443125 3.1297969 3.0339375 6.6872781 2.0859375 13.017578 C 1.4720375 13.204578 1.0214844 13.771266 1.0214844 14.447266 C 1.0214844 15.276266 1.6923313 15.947266 2.5195312 15.947266 C 3.3467312 15.947266 4.0175781 15.276266 4.0175781 14.447266 C 4.0175781 13.821266 3.6343437 13.284547 3.0898438 13.060547 C 3.4626438 10.684547 4.3887594 8.7513563 5.6933594 7.2226562 C 7.0931594 8.6483563 7.9772656 10.148375 8.1972656 11.359375 C 8.4216656 12.595375 8.1083906 13.644016 7.2128906 14.541016 L 7.9179688 15.248047 C 9.0193688 14.145047 9.4545875 12.693688 9.1796875 11.179688 C 8.9094875 9.6909875 7.8715875 8.0238937 6.3671875 6.4960938 C 6.5382875 6.3284937 6.7195906 6.171825 6.9003906 6.015625 C 8.3699906 7.425525 9.8588688 8.3032531 11.292969 8.5644531 C 12.804969 8.8396531 14.251516 8.4038812 15.353516 7.3007812 L 14.648438 6.59375 C 13.753438 7.49055 12.704703 7.8047781 11.470703 7.5800781 C 10.329703 7.3722781 9.0262062 6.6389188 7.6914062 5.3867188 C 9.2737063 4.2409188 11.138953 3.4679156 13.126953 3.0410156 C 13.356953 3.5742156 13.884953 3.9472656 14.501953 3.9472656 C 15.328953 3.9472656 16 3.2756656 16 2.4472656 C 16 1.6187656 15.328953 0.94726562 14.501953 0.94726562 z"/>
</svg>

<svg xmlns="http://www.w3.org/2000/svg" width="16" height="16"><defs><style id="current-color-scheme" type="text/css"></style></defs><path d="M14.502.947c-.682 0-1.25.458-1.432 1.082C7.744 3.13 3.034 6.687 2.086 13.018a1.497 1.497 0 1 0 1.932 1.43c0-.627-.384-1.163-.928-1.387.373-2.376 1.299-4.31 2.603-5.838 1.4 1.425 2.284 2.925 2.504 4.136.225 1.236-.089 2.285-.984 3.182l.705.707c1.101-1.103 1.537-2.554 1.262-4.068-.27-1.489-1.308-3.156-2.813-4.684.171-.168.353-.324.533-.48 1.47 1.41 2.959 2.287 4.393 2.548 1.512.276 2.959-.16 4.06-1.263l-.705-.707c-.895.897-1.943 1.21-3.177.986-1.141-.208-2.445-.941-3.78-2.193 1.583-1.146 3.448-1.92 5.436-2.346A1.497 1.497 0 0 0 16 2.447a1.5 1.5 0 0 0-1.498-1.5z" fill="currentColor" color="#565656"/></svg>
